64x64/apps/appimagekit-hyper.svg

<svg xmlns="http://www.w3.org/2000/svg" width="64" height="64" version="1">
 <path style="opacity:0.2" d="M 20.800781,5 C 11.493581,5 4,12.493581 4,21.800781 V 33 44.199219 C 4,53.506419 11.493581,61 20.800781,61 H 43.199219 C 52.506419,61 60,53.506419 60,44.199219 V 33 21.800781 C 60,12.493581 52.506419,5 43.199219,5 Z"/>
 <path style="fill:#f746b3" d="M 20.8,4 H 43.2 C 52.5072,4 60,11.4928 60,20.8 V 32 H 4 V 20.8 C 4,11.4928 11.4928,4 20.8,4 Z"/>
 <path style="fill:#fbb54c" d="M 20.8,60 H 43.2 C 52.5072,60 60,52.5072 60,43.2 V 32 H 4 V 43.2 C 4,52.5072 11.4928,60 20.8,60 Z"/>
 <path style="opacity:0.1" d="m 21,11 h 22 c 6.189135,0 11,4.810865 11,11 v 22 c 0,6.189135 -4.810865,11 -11,11 H 21 C 14.810865,55 10,50.189135 10,44 V 22 c 0,-6.189135 4.810865,-11 11,-11 z"/>
 <path style="fill:#17191e" d="m 21,10 h 22 c 6.189135,0 11,4.810865 11,11 v 22 c 0,6.189135 -4.810865,11 -11,11 H 21 C 14.810865,54 10,49.189135 10,43 V 21 c 0,-6.189135 4.810865,-11 11,-11 z"/>
 <path style="opacity:0.2" d="M 23.75,16 15,23.710938 18.75,25.714844 16.25,33 25,25.289062 21.25,23.285156 Z M 28,30 v 3 h 10 v -3 z"/>
 <path style="fill:#f4f4f7" d="M 23.75 15 L 15 22.710938 L 18.75 24.714844 L 16.25 32 L 25 24.289062 L 21.25 22.285156 L 23.75 15 z M 28 29 L 28 32 L 38 32 L 38 29 L 28 29 z"/>
 <path style="fill:#f4f4f7;opacity:0.2" d="M 20.800781 4 C 11.493581 4 4 11.493581 4 20.800781 L 4 21.800781 C 4 12.493581 11.493581 5 20.800781 5 L 43.199219 5 C 52.506419 5 60 12.493581 60 21.800781 L 60 20.800781 C 60 11.493581 52.506419 4 43.199219 4 L 20.800781 4 z"/>
</svg>

<svg xmlns="http://www.w3.org/2000/svg" width="64" height="64" version="1"><path style="opacity:.2" d="M20.8 5C11.495 5 4 12.494 4 21.8v22.4C4 53.505 11.494 61 20.8 61h22.4C52.505 61 60 53.506 60 44.2V21.8C60 12.495 52.506 5 43.2 5z"/><path style="fill:#f746b3" d="M20.8 4h22.4C52.507 4 60 11.493 60 20.8V32H4V20.8C4 11.493 11.493 4 20.8 4z"/><path style="fill:#fbb54c" d="M20.8 60h22.4C52.507 60 60 52.507 60 43.2V32H4v11.2C4 52.507 11.493 60 20.8 60z"/><path style="opacity:.1" d="M21 11h22c6.19 0 11 4.81 11 11v22c0 6.19-4.81 11-11 11H21c-6.19 0-11-4.81-11-11V22c0-6.19 4.81-11 11-11z"/><path style="fill:#17191e" d="M21 10h22c6.19 0 11 4.81 11 11v22c0 6.19-4.81 11-11 11H21c-6.19 0-11-4.81-11-11V21c0-6.19 4.81-11 11-11z"/><path style="opacity:.2" d="M23.75 16 15 23.71l3.75 2.005L16.25 33 25 25.29l-3.75-2.005zM28 30v3h10v-3z"/><path style="fill:#f4f4f7" d="M23.75 15 15 22.71l3.75 2.005L16.25 32 25 24.29l-3.75-2.005L23.75 15zM28 29v3h10v-3H28z"/><path style="fill:#f4f4f7;opacity:.2" d="M20.8 4C11.495 4 4 11.494 4 20.8v1C4 12.495 11.494 5 20.8 5h22.4C52.505 5 60 12.494 60 21.8v-1C60 11.495 52.506 4 43.2 4H20.8z"/></svg>
